!!!COM: Bach, Johann Sebastian
!!!CDT: 1685///-1750///
!!!CNT@EN: German
!!!OTL: Allemande from Cello Suite No. 1 in G Major, BWV 1007
!!!OPR: Cello Suite No. 1 in G Major, BWV 1007
!!!OMD: Allemande
!!!OMV: 2
!!!ODT: 1720///
!!!SCT: BWV 1007
!!!SCA: Thematisch-systematisches Verzeichnis der musikalischen Werke Johann Sebastian Bach: Bach-Werke-Verzeichnis (Schmieder)
**kern
*Icello
*>[A,A,B,B]
*>norep[A,B]
*>A
*clefF4
*k[f#]
*M2/2
*MM100
16B\
=1
(GGq/
[4D\) [4B\
16D\] 16B\LL]
(16A\
16G\
16F#\JJ)
(16G\LL
16D\
16E\
16F#\JJ
16G\LL
16A\
16B\
16c\JJ)
=2
(16d\LL
16B\
16G\
16F#\JJ)
(16G\LL
16E\
16D\
16C\JJ)
(16BB/LL
16C/)
16D/
16E/JJ
16F#\LL
16G\
16A\
16B\JJ
=3
(16c\LL
16A\
16G\
16F#\JJ
16G\LL)
(16E\
16F#\
16G\JJ
16AA\LL)
(16D\
16F#\
16G\JJ
16A\LL
16B\)
16c\
16A\JJ
=4
(16B\LL
16G\)
(16G\
(16D\JJ)
16D/LL
16BB/)
(16BB/
16GG/JJ)
(8.GG\L
16B\Jk)
(16c\LL
16B\
16A\
16G\JJ)
=5
(16A\LL
16B\)
16c\
16A\JJ
(16G\LL
16F#\
16G\
16A\JJ)
(8.D#\L
16c\Jk)
(16B\LL
16A\
16G\
16F#\JJ)
=6
(16G\LL
16E\)
(16E\
16BB\JJ)
(16BB/LL
16GG/)
(16GG/
16EE/JJ)
(8.EE/L
16BB/Jk)
(16E\LL
16G\
16F#\
16A\JJ)
=7
(16G\LL
16F#\
16E\
16F#\JJ
16G\LL)
16c#\
(16G\
16F#\JJ
16G\LL)
16c#\
(16E\
16F#\JJ
16G\LL
(16E\)
16AA\
16G\JJ)
=8
8F#\L
(16D\L
16E\JJ)
(16F#\LL
16D\)
(16G\
16E\JJ)
(16F#\LL
16D\)
16F#\
16G\JJ
(16A\LL
16B\
16cn\
16A\JJ)
=9
(16B\LL
16D\
16GG\
16D\JJ
16B\LL
16G\)
16A\
16F#\JJ
16G\LL
16E\
16G\
16A\JJ
(16B\LL
16c#\
16d\
16B\JJ)
=10
(16c#\LL
16E\
16GG\
16E\JJ
16c#\LL
16A\)
16B\
16d\JJ
16c#\LL
16A\
16d\
16B\JJ
16c#\LL
16A\
(16e\
16G\JJ)
=11
(8.F#\L
16d\Jk)
(16A\LL
16G\
16F#\
16E\JJ)
(16D\LL
16A\)
16G\
16E\JJ
16F#\LL
16D\
(16A\
16Cn\JJ)
=12
(8.BB\L
16G\Jk)
(16D/LL
16C/
16BB/
16AA/JJ)
(16GG/LL
16D/)
16C/
16AA/JJ
16BB/LL
16GG/
(16D/
16FF#/JJ)
=13
(16EE/LL
16GG/
16AA/
16BB/JJ
16C#\LL
16D\)
16E\
16F#\JJ
16G\LL
16A\
16c#\
16d\JJ
16e\LL
16A\J
8g\J
=14
(16D\LL
16g\)
16f#\
16e\JJ
(16f#\LL
16d\
16A\
16d\JJ)
(16D\LL
16F#\
16A\
16cn\JJ)
(8.B\L
16A\Jk)
=15
GGq/
8.D\ (8.B\L
16A\Jk)
(16G\LL
16F#\
16E\
16d\JJ)
(16c#\LL
16e\)
16A\
(16G\JJ
16F#/LL
16D/)
16AA/
16C#/JJ
=16
(8.DD/L
16AA/Jk)
(16D\LL
16F#\)
16A\
16c#\JJ
16d\LL
16A\
16F#\
16D\JJ
8.DD/
=:|!|:
*>B
16A\
=17
4D\ [4A\
16A\LL]
(16F#\
16G\
16A\JJ)
(16D\LL
16E\
16F#\
16G\JJ
16A\LL
16F#\
16D\
16C\JJ)
=18
(16BB\LL
16D\
16G\
16F#\JJ
16G\LL
16A\
16B\
16c\JJ
16d\LL)
(16B\
16A\)
16G\JJ
(16Fn\LL
16E\
16F\
16d\JJ)
=19
(8E\L
16D\L
16C\JJ
(16c/LL)
16AA/
16BB/
16C/JJ
16DD\LL
(16c\)
16B\
16c\JJ)
(16d\LL
16B\
16c\
16A\JJ)
=20
(8G#\L
16F#\L
16E\JJ
16B/LL)
(16D/
16C/
16BB/JJ)
(16C\LL
16E\
16F#\
16G#\JJ)
(16A\LL
16c\
16B\
16A\JJ
=21
8d/L)
(16BB/L
16C/JJ)
(16D\LL
16E\
16Fn\
16AA\JJ)
(8.GG#/L
16E/Jk)
(16B\LL
16d\)
16c\
16B\JJ
=22
AAq/
8.E\ (8.c\L
16B\Jk)
(16A\LL
16Gn\
16Fn\
16E\JJ)
16F\LL
16D\
16B-\
16A\JJ
(16B-\LL
16c\
16d\
16A\JJ)
=23
(16G#\LL
16A\
16Bn\
16E\JJ)
16Fn/LL
(16D/
16C/
16BB/JJ)
(16C\LL
16E\
16A\
16B\JJ)
8.E\ (8.B\L
16A\Jk)
=24
AAq/
8.E\ (8.A\L
16B\Jk)
(16c\LL
16B\
16c\
16G\JJ)
(16F#\LL
16G\)
16A\
16E\JJ
(16D/LL
16C/
16BB/
16AA/JJ)
=25
(16GG\LL
16D\
16F#\)
16c\JJ
16B\LL
16A\
16G\
16A\JJ
(16B\LL
16c\)
16d\
16e\JJ
(16d\LL
16e\
16fn\
16d\JJ)
=26
8e\L
8G\J
16C/
(16d\LL
16c\
16B\JJ)
(16A\LL
16B\)
16c\
16e\JJ
(8.d\L
16c\Jk)
=27
8d\L
8A\J
16BB/
(16c\LL
16B\
16A\JJ)
(16G\LL
16F#\
16E\
16G\JJ)
(16B\LL
16d\)
16c\
16B\JJ
=28
8c\L
8G\J
16AA/
(16E\LL
16F#\
16G\JJ)
(16F#\LL
16A\
16B\
16c\JJ)
(16D/LL
16C/)
16BB/
16AA/JJ
=29
(16GG\LL
16D\
16F#\
16A\JJ
16c\LL)
(16A\
16F#\
16D\JJ)
GGq/
8.D\ (8.B\L
16D\Jk)
(16E\LL
16G\)
16A\
16c#\JJ
=30
(16d\LL
16A\
16F#\
16E\JJ
16D\LL)
(16Fn\
16G\
16B\JJ)
(16cn\LL
16G\
16E\
16D\JJ
16C\LL)
(16E\
16A\
16c\JJ)
=31
(16F#\LL
16A\)
16c\
16e\JJ
(8.d\L
16C\Jk)
16BB/LL
16G/
16AA/
16GG/JJ
(16DD/LL
16AA/
16G/
16F#/JJ)
=32
(16G/LL
16GG/)
16BB/
16D/JJ
16G\LL
16B\
(16d\
16f#\JJ)
16g\LL
16d\
16B\
16G\JJ
8.GG/
==:|!
*-
!!!ENC: Craig Stuart Sapp
!!!END: 2004/12/01/
